icons/smiley-24.svg

<svg width="24" height="24" viewBox="0 0 24 24" xmlns="http://www.w3.org/2000/svg">
  <path d="M9.50262 14.639C9.25318 14.3118 8.78598 14.2464 8.45619 14.4938C8.13182 14.737 8.06585 15.2271 8.31038 15.5493C8.33468 15.5804 8.35942 15.611 8.38509 15.6409C8.42875 15.6919 8.49009 15.7598 8.56922 15.8389C8.72711 15.9968 8.95825 16.2017 9.26361 16.4053C9.87721 16.8144 10.793 17.2188 11.9999 17.2188C13.2069 17.2188 14.1227 16.8144 14.7363 16.4053C15.0416 16.2017 15.2728 15.9968 15.4307 15.8389C15.5098 15.7598 15.5711 15.6919 15.6148 15.6409L15.6937 15.5438C15.9422 15.2124 15.8751 14.7423 15.5437 14.4938C15.2139 14.2464 14.7467 14.3118 14.4973 14.639L14.496 14.6407C14.487 14.6519 14.4446 14.7037 14.37 14.7783C14.2701 14.8782 14.1145 15.017 13.9042 15.1572C13.4866 15.4357 12.8555 15.7188 11.9999 15.7188C11.1444 15.7188 10.5133 15.4357 10.0957 15.1572C9.88539 15.017 9.72981 14.8782 9.62988 14.7783C9.58552 14.7339 9.54172 14.6882 9.50262 14.639Z"/>
  <path d="M16 11.75C16.6904 11.75 17.25 11.1904 17.25 10.5C17.25 9.80964 16.6904 9.25 16 9.25C15.3096 9.25 14.75 9.80964 14.75 10.5C14.75 11.1904 15.3096 11.75 16 11.75Z"/>
  <path d="M9 10.5C9 11.1904 8.44036 11.75 7.75 11.75C7.05964 11.75 6.5 11.1904 6.5 10.5C6.5 9.80964 7.05964 9.25 7.75 9.25C8.44036 9.25 9 9.80964 9 10.5Z"/>
  <path fill-rule="evenodd" clip-rule="evenodd" d="M12 1C5.92487 1 1 5.92487 1 12C1 18.0751 5.92487 23 12 23C18.0751 23 23 18.0751 23 12C23 5.92487 18.0751 1 12 1ZM12 2.78125C6.90863 2.78125 2.78125 6.90863 2.78125 12C2.78125 17.0914 6.90863 21.2188 12 21.2188C17.0914 21.2188 21.2188 17.0914 21.2188 12C21.2188 6.90863 17.0914 2.78125 12 2.78125Z"/>
</svg>

<svg xmlns="http://www.w3.org/2000/svg" width="24" height="24" viewBox="0 0 24 24"><path d="M9.503 14.639a.75.75 0 00-1.047-.145.767.767 0 00-.146 1.055l.075.092c.044.05.105.119.184.198.158.158.39.363.695.566A4.88 4.88 0 0012 17.22a4.88 4.88 0 002.736-.814 4.58 4.58 0 00.695-.566c.079-.08.14-.147.184-.198l.079-.097a.75.75 0 00-1.197-.905l-.001.002a1.807 1.807 0 01-.126.137c-.1.1-.255.239-.466.38a3.38 3.38 0 01-1.904.56 3.38 3.38 0 01-1.904-.56 3.078 3.078 0 01-.466-.38 1.668 1.668 0 01-.127-.139zM16 11.75a1.25 1.25 0 100-2.5 1.25 1.25 0 000 2.5zM9 10.5a1.25 1.25 0 11-2.5 0 1.25 1.25 0 012.5 0z"/><path fill-rule="evenodd" d="M12 1C5.925 1 1 5.925 1 12s4.925 11 11 11 11-4.925 11-11S18.075 1 12 1zm0 1.781a9.219 9.219 0 100 18.438A9.219 9.219 0 0012 2.78z"/></svg>
